X: 1
T: Patience Quadrille, Figure 2
T: Prithee, pretty maiden
C: Sir Arthur Sullivan
M: C
L: 1/8
K: G
D2 "A"\
[|"G"DG GE "D7"FD D>D | "G"DG GE "D7"FD D>D | "G"DB "B7"BA "Em"AG "C"GE | "G"DG "D7"FA "G"G2 "fine"G2 |]
"B"\
[|"G"GF GA B2 B2 | "D7"Bc AB "G"G3 z | "C"E2 EE "G"D2 G2 | "Am"G2 {AG}FG "D7"A2 D2 |
| "G"GF GA B2 B2 | "D7"Bc AB "G"G3 z | "Em"B2 BB "D"A2 d2 | "A7"F3 E "D"D2 "D7"D>D |]
%%text Play 4x(AB)A
